X: 30371
T: KENTUCKY QUICKSTEP
C:
%R: quickstep, march, reel
B: Elias Howe "The Musician's Companion" Part 3 1844 p.37 #1
S: http://imslp.org/wiki/The_Musician's_Companion_(Howe,_Elias)
S: https://archive.org/stream/firstthirdpartof03howe/#page/66/mode/1up
Z: 2016 John Chambers <jc:trillian.mit.edu>
M: 2/4
L: 1/8
K: G
% - - - - - - - - - - - - - - - - - - - - - - - - -
V: 1 staves=3
d |\
d2Bg | g2fe | dggb | b2 a/g/f/e/ |\
d2Bg | e2a>g | f>gab | g2z :|
|: g |\
f>ede | fgab | c'bag | fed d |\
d2Bg | e2a>g | f>gab | g2z :|
% - - - - - - - - - - - - - - - - - - - - - - - - -
V: 2
z |\
B,DGD | B,DGD | B,DGD | B,G F/E/D/C/ |\
B,DGD | CEAE | DB,CD | B,2z :|
|: z |\
z[FA,][FA,][FA,] | z[FA,][FA,][FA,] |\
z[FA,][FA,][FA,] | z[FA,][FA,]z |\
B,DGD | CEAE | DB,CD | B,2z :|
% - - - - - - - - - - - - - - - - - - - - - - - - -
V: 3 clef=bass middle=d
z |\
G2g2 | G2g2 | G2g2 | D2d2 |\
G2g2 | c2c2 | d2d2 | G2z :|
|: z |\
d2z2 | d2z2 | d2z2 | d2z2 |
G2g2 | c2c2 | d2d2 | G2z :|
% - - - - - - - - - - - - - - - - - - - - - - - - -


